!!!SOCIAL_FUNCTION:	war songs
!!!PDT:	1922
!!!OTL: No_76_Song_When_Washing_the_Wounded_(a).krn
!!!REG: Southwest
!!!LANG: Non-Tone
!!!LING_GROUP: Uto-Aztecan
**kern
*staff1
=1-
=
*clefF4
*k[b-e-a-]
*M3/4
2e-\
4B-\
=2||
*M2/4
12G\L
12E-\
12G\J
4E-\
=3
8.E-\L
16E-\Jk
4E-\
=4||
*M3/4
8c\L
8c\J
8B-\L
16.B-\L
32G\JJk
8B-\L
8B-\J
=5
8c\L
8c\J
8B-\L
16.B-\L
32G\JJk
8B-\L
8B-\J
=6
8G\L
8G\J
8B-\L
16.B-\L
32G\JJk
8B-\L
8B-\J
=7||
*M2/4
12G\L
12G\
12G\J
12G\L
12G\
12G\J
=8
8G\L
8B-\J
8G\L
8G\J
=9
8G\L
8G\J
16.G\LL
32E-\JK
8E-\J
=10
8G\L
8B-\J
8G\L
8G\J
=11
8G\L
8G\J
16.G\LL
32E-\JK
8E-\J
=12||
*M3/4
8G\L
16B-\L
16B-\JJ
8G\L
8G\J
12B-\L
12G\
12B-\J
=13||
*M2/4
16G\LL
16G\J
8G\J
16G\LL
16G\J
8G;\J
==:|!
*-
